Sources/FrostedUI/Resources/Icons.xcassets/thumbDown16.imageset/thumb-down-16.svg

<svg width="16" height="16" viewBox="0 0 16 16" fill="none" xmlns="http://www.w3.org/2000/svg" data-fui-icon="true">
  <path
    d="M7.74023 14.917C9.01627 14.917 9.99889 13.7782 9.80176 12.5127L9.55273 10.917H12.1719C13.8554 10.917 15.1437 9.41722 14.8906 7.75293L14.333 4.08691C14.1286 2.74335 12.9733 1.75 11.6143 1.75H2.5C1.71772 1.75013 1.08301 2.38465 1.08301 3.16699V8.16699C1.08321 8.94917 1.71784 9.58385 2.5 9.58398H4.12793L6.48047 14.1494L6.58203 14.3174C6.84554 14.6906 7.27704 14.9169 7.74023 14.917ZM2.58301 3.25H3.75V8.08398H2.58301V3.25ZM5.25 8.48633V3.25H11.6143C12.232 3.25 12.7567 3.70179 12.8496 4.3125L13.4082 7.97852C13.5231 8.73491 12.9371 9.41699 12.1719 9.41699H8.67676C8.45787 9.41716 8.24979 9.5134 8.10742 9.67969C7.96536 9.84595 7.90196 10.0661 7.93555 10.2822L8.31934 12.7441C8.37134 13.0798 8.12373 13.3856 7.78711 13.4121L5.25 8.48633Z"
    fill="currentColor"
  />
</svg>

<svg xmlns="http://www.w3.org/2000/svg" width="16" height="16" fill="none" data-fui-icon="true" viewBox="0 0 16 16"><path fill="currentColor" d="M7.74 14.917a2.086 2.086 0 0 0 2.062-2.404l-.25-1.596h2.62a2.75 2.75 0 0 0 2.719-3.164l-.558-3.666a2.75 2.75 0 0 0-2.719-2.337H2.5c-.782 0-1.417.635-1.417 1.417v5c0 .782.635 1.417 1.417 1.417h1.628l2.352 4.565.102.168c.264.374.695.6 1.158.6M2.583 3.25H3.75v4.834H2.583zM5.25 8.486V3.25h6.364a1.25 1.25 0 0 1 1.236 1.063l.558 3.666a1.25 1.25 0 0 1-1.236 1.438H8.677a.75.75 0 0 0-.741.865l.383 2.462a.583.583 0 0 1-.532.668z"/></svg>
